assets/icons/qvision/label_off.svg

<svg xmlns="http://www.w3.org/2000/svg" height="24" viewBox="0 0 24 24" width="24"><path d="M0 0h24v24H0V0z" fill="none"/><path d="M3.25 2.75l17 17L19 21l-2-2H5c-1.1 0-2-.9-2-2V7c0-.55.23-1.05.59-1.41L2 4l1.25-1.25zM22 12l-4.37-6.16C17.27 5.33 16.67 5 16 5H8l11 11 3-4z"/></svg>

<svg width="24" height="24" viewBox="0 0 24 24" fill="none" xmlns="http://www.w3.org/2000/svg">
<g clip-path="url(#clip0_147_4349)">
<path d="M3.25 2.75L20.25 19.75L19 21L17 19H5C3.9 19 3 18.1 3 17V7C3 6.45 3.23 5.95 3.59 5.59L2 4L3.25 2.75ZM22 12L17.63 5.84C17.27 5.33 16.67 5 16 5H8L19 16L22 12Z" fill="#323232"/>
</g>
<defs>
<clipPath id="clip0_147_4349">
<rect width="24" height="24" fill="white"/>
</clipPath>
</defs>
</svg>
